dist/flags/m/120.svg

<svg width="20" height="15" viewBox="0 0 20 15" fill="none" xmlns="http://www.w3.org/2000/svg">
<mask id="mask0" mask-type="alpha" maskUnits="userSpaceOnUse" x="0" y="0" width="20" height="15">
<rect width="20" height="15" fill="white"/>
</mask>
<g mask="url(#mask0)">
<path fill-rule="evenodd" clip-rule="evenodd" d="M6 0H14V15H6V0Z" fill="#E11C1B"/>
<path fill-rule="evenodd" clip-rule="evenodd" d="M10.0471 9.05654L7.86863 10.5676L8.56474 7.97952L6.96548 6.32624L9.13097 6.23685L10.0471 3.67761L10.9633 6.23685H13.1251L11.5295 7.97952L12.3286 10.4148L10.0471 9.05654Z" fill="#FECA00"/>
<path fill-rule="evenodd" clip-rule="evenodd" d="M14 0H20V15H14V0Z" fill="#FBCD17"/>
<path fill-rule="evenodd" clip-rule="evenodd" d="M0 0H6V15H0V0Z" fill="#0B9E7A"/>
</g>
</svg>

<svg width="20" height="15" fill="none" xmlns="http://www.w3.org/2000/svg">
  <mask id="a" maskUnits="userSpaceOnUse" x="0" y="0" width="20" height="15">
    <path fill="#fff" d="M0 0h20v15H0z"/>
  </mask>
  <g mask="url(#a)" fill-rule="evenodd" clip-rule="evenodd">
    <path d="M6 0h8v15H6V0z" fill="#E11C1B"/>
    <path d="M10.047 9.056L7.87 10.568l.696-2.589-1.6-1.653 2.166-.09.916-2.558.916 2.559h2.162L11.53 7.979l.799 2.436-2.282-1.359z" fill="#FECA00"/>
    <path d="M14 0h6v15h-6V0z" fill="#FBCD17"/>
    <path d="M0 0h6v15H0V0z" fill="#0B9E7A"/>
  </g>
</svg>
